X: 3
T: The Coast Of Austria
R: reel
M: 4/4
L: 1/8
K: Amaj
E |:FA A2 BAFA | B3d ADFD | FA A2 BAFA | Bddc d2 de |
fedf edBd| B3A B2 dB|ADFA B3 d|AFEF D2 DE:|
|:F2 EF DB B2 | AFAB D2 DE| FA A2 BAFA | Bddc d2 de |
fedf edBd| B3A B2 dB|ADFA B3 d|AFEF D2 DE:|


Tune 692	Setting 20955

